artwork/sticker-logo.svg

<svg clip-rule="evenodd" fill-rule="evenodd" stroke-linejoin="round" stroke-miterlimit="2" viewBox="0 0 1000 400" xmlns="http://www.w3.org/2000/svg"><g fill-rule="nonzero" transform="matrix(7.2294994712 0 0 7.2294994712 -116.3305223894 -87.485443277)"><path d="m76.363 18.3c-1.14-.607-2.425-.937-3.753-.937h-7c-1.745 0-3.385.566-4.72 1.544-1.336-.979-2.976-1.544-4.72-1.544h-7c-1.491 0-2.929.416-4.167 1.173-2.605-1.179-5.478-1.75-8.395-1.624-3.51-.012-6.996.938-10.048 2.752-.023.013-.046.027-.069.041-3.154 1.918-5.675 4.722-7.247 8.062-1.523 3.231-2.286 6.767-2.23 10.338-.001-.046-.001.386-.001.386-.188 5.55 1.935 10.955 5.867 14.904.047.047.095.094.143.14 3.92 3.745 9.174 5.771 14.587 5.634l-.021-.001c3.085.03 6.141-.611 8.956-1.879 1.524-.678 2.938-1.562 4.207-2.621 1.401 2.457 4.032 4.029 6.938 4.029h6.44c3.435 0 6.485-2.196 7.575-5.454l1.415-4.233c.182.05.366.094.551.131l-.95 6.346c-.575 3.842 1.697 7.54 5.384 8.764 3.687 1.223 7.719-.384 9.554-3.808l5.631-10.503c.669 1.146 1.444 2.197 2.315 3.157.023.025.047.051.07.077 3.747 4.022 9.065 6.213 14.551 6.003 2.947.001 5.891-.674 8.576-1.974 1.311-.621 2.533-1.403 3.637-2.325 3.556 2.925 8.088 4.47 12.739 4.289 2.938.004 5.891-.67 8.583-1.974 2.847-1.372 5.259-3.504 6.969-6.161 1.749-2.7 2.679-5.85 2.677-9.068-.001-1.251-.29-2.436-.804-3.49.532-1.023.848-2.178.889-3.404.168-4.958-1.771-9.762-5.333-13.215-.068-.066-.138-.131-.208-.195-3.542-3.196-8.18-4.903-12.938-4.773-4.594-.152-9.079 1.398-12.598 4.308-3.474-2.899-7.894-4.434-12.424-4.307-3.73-.103-7.379.911-10.495 2.86-.158-.374-.346-.738-.563-1.089-1.456-2.354-4.026-3.786-6.793-3.786h-9.22c-2.649 0-5.085 1.309-6.557 3.427z" fill="#fff"/><path d="m37.54 51.18c-3.337.121-6.585-1.113-9-3.42-2.4-2.411-3.685-5.721-3.54-9.12v-.64c-.04-2.359.463-4.696 1.47-6.83.904-1.922 2.355-3.536 4.17-4.64 1.858-1.104 3.989-1.669 6.15-1.63 3.082-.182 6.092 1.013 8.21 3.26 2 2.193 3 5.297 3 9.31v2.76h-16.16c.16 1.531.871 2.954 2 4 1.146 1.007 2.635 1.541 4.16 1.49 2.372.103 4.651-.958 6.1-2.84l3.31 3.73c-1.044 1.484-2.471 2.656-4.13 3.39-1.802.815-3.763 1.218-5.74 1.18zm-.77-20.84c-1.234-.044-2.428.458-3.26 1.37-.915 1.112-1.473 2.475-1.6 3.91h9.39v-.55c.054-1.276-.383-2.526-1.22-3.49-.874-.868-2.081-1.32-3.31-1.24z" fill="#1c2445"/><path d="m60.91 42.44 4.7-17.09h7l-8.48 25.36h-6.44l-8.52-25.36h7z" fill="#1c2445"/><path d="m110 45.72c1.088.045 2.156-.311 3-1 .784-.697 1.229-1.701 1.22-2.75h6.32c.001 1.679-.485 3.322-1.4 4.73-.93 1.432-2.244 2.575-3.79 3.3-1.646.804-3.458 1.211-5.29 1.19-3.216.164-6.345-1.104-8.54-3.46-2.087-2.3-3.13-5.483-3.13-9.55v-.45c0-3.9 1.033-7.017 3.1-9.35 2.177-2.369 5.297-3.652 8.51-3.5 2.791-.135 5.524.84 7.6 2.71 1.937 1.888 2.99 4.507 2.9 7.21h-6.3c.025-1.187-.405-2.339-1.2-3.22-.798-.84-1.923-1.292-3.08-1.24-1.405-.08-2.755.576-3.56 1.73-.8 1.15-1.2 3-1.2 5.6v.7c0 2.61.39 4.49 1.19 5.63.829 1.174 2.217 1.828 3.65 1.72z" fill="#1c2445"/><path d="m134.88 45.72c1.088.044 2.156-.312 3-1 .781-.699 1.223-1.702 1.21-2.75h6.33c.001 1.679-.485 3.322-1.4 4.73-.914 1.424-2.206 2.566-3.73 3.3-1.648.799-3.459 1.203-5.29 1.18-3.216.164-6.345-1.104-8.54-3.46-2.087-2.3-3.13-5.483-3.13-9.55v-.45c0-3.9 1.033-7.017 3.1-9.35 2.19-2.384 5.337-3.666 8.57-3.49 2.791-.137 5.525.838 7.6 2.71 1.943 1.884 3.001 4.505 2.91 7.21h-6.33c.023-1.188-.41-2.341-1.21-3.22-.835-.796-1.945-1.24-3.098-1.24-1.383 0-2.692.639-3.542 1.73-.8 1.15-1.21 3-1.21 5.6v.7c0 2.607.4 4.483 1.2 5.63.811 1.146 2.158 1.796 3.56 1.72z" fill="#1c2445"/><path d="m82.92 22.86h9.22l-6.14 12.3h6.15l-11.53 21.51 2.3-15.36h-7.68z" fill="#0fdd42"/></g><path d="m77.189 22.276c-.033-.05-.068-.099-.103-.149-1.037-1.439-2.702-2.292-4.476-2.292h-7c-1.966 0-3.74 1.04-4.72 2.662-.98-1.622-2.754-2.662-4.72-2.662h-7c-1.472 0-2.869.587-3.894 1.61-2.591-1.469-5.57-2.2-8.602-2.061-3.1-.021-6.168.81-8.851 2.405-.016.009-.032.019-.048.028-2.74 1.666-4.929 4.102-6.294 7.003-1.36 2.884-2.043 6.041-1.996 9.228 0-.007 0 .486 0 .486-.175 4.887 1.689 9.644 5.147 13.117.032.033.065.065.098.097 3.454 3.299 8.086 5.08 12.856 4.948 2.738.031 5.451-.537 7.948-1.663 2.437-1.083 4.551-2.775 6.141-4.91l.787 2.343c.755 2.246 2.859 3.759 5.228 3.759h6.44c2.372 0 4.478-1.517 5.23-3.766l2.32-6.937c.983.831 2.24 1.303 3.56 1.303h1.278s-1.352 9.028-1.352 9.028c-.398 2.653 1.171 5.207 3.717 6.052 2.546.844 5.331-.265 6.598-2.629l8.104-15.119c.745 2.888 2.059 5.304 3.85 7.279.017.018.033.035.049.053 3.269 3.509 7.914 5.415 12.701 5.216 2.597.007 5.191-.586 7.554-1.734 1.782-.842 3.372-2.035 4.678-3.5l.007.008c3.265 3.506 7.904 5.411 12.685 5.217 2.613.008 5.211-.583 7.578-1.729 2.437-1.174 4.503-3.001 5.966-5.276 1.491-2.3 2.284-4.984 2.282-7.725-.001-1.342-.481-2.573-1.28-3.529.814-.925 1.322-2.127 1.367-3.451.144-4.26-1.522-8.389-4.584-11.356-.047-.046-.095-.091-.143-.134-3.086-2.786-7.133-4.266-11.281-4.136-4.768-.178-9.396 1.747-12.637 5.27-.293-.343-.602-.673-.928-.989-.051-.051-.104-.1-.157-.148-3.095-2.789-7.152-4.268-11.309-4.132-4.729-.152-9.329 1.777-12.554 5.287-.023.025-.045.05-.068.075l-.052.06c.59-1.585.423-3.367-.479-4.824-1.005-1.625-2.779-2.614-4.69-2.614h-9.22c-2.227 0-4.236 1.339-5.092 3.396z" fill="none" stroke="#000" stroke-width=".04" transform="matrix(7.22952 0 0 7.22952 -116.331 -87.4844)"/></svg>

<?xml version="1.0" encoding="UTF-8" standalone="no"?>
<!DOCTYPE svg PUBLIC "-//W3C//DTD SVG 1.1//EN" "http://www.w3.org/Graphics/SVG/1.1/DTD/svg11.dtd">
<svg width="100%" height="100%" viewBox="0 0 1000 400" version="1.1" xmlns="http://www.w3.org/2000/svg" xmlns:xlink="http://www.w3.org/1999/xlink" xml:space="preserve" xmlns:serif="http://www.serif.com/" style="fill-rule:evenodd;clip-rule:evenodd;stroke-linejoin:round;stroke-miterlimit:2;">
    <g id="Artwork" transform="matrix(6.13793,0,0,6.13793,-97.772,-16.906)">
        <g id="outline" transform="matrix(1.17784,0,0,1.17784,-3.02358,-11.4989)">
            <path d="M76.363,18.3C75.223,17.693 73.938,17.363 72.61,17.363L65.61,17.363C63.865,17.363 62.225,17.929 60.89,18.907C59.554,17.928 57.914,17.363 56.17,17.363L49.17,17.363C47.679,17.363 46.241,17.779 45.003,18.536C42.398,17.357 39.525,16.786 36.608,16.912C33.098,16.9 29.612,17.85 26.56,19.664C26.537,19.677 26.514,19.691 26.491,19.705C23.337,21.623 20.816,24.427 19.244,27.767C17.721,30.998 16.958,34.534 17.014,38.105C17.013,38.059 17.013,38.491 17.013,38.491C16.825,44.041 18.948,49.446 22.88,53.395C22.927,53.442 22.975,53.489 23.023,53.535C26.943,57.28 32.197,59.306 37.61,59.169L37.589,59.168C40.674,59.198 43.73,58.557 46.545,57.289C48.069,56.611 49.483,55.727 50.752,54.668C52.153,57.125 54.784,58.697 57.69,58.697L64.13,58.697C67.565,58.697 70.615,56.501 71.705,53.243L73.12,49.01C73.302,49.06 73.486,49.104 73.671,49.141L72.721,55.487C72.146,59.329 74.418,63.027 78.105,64.251C81.792,65.474 85.824,63.867 87.659,60.443L93.29,49.94C93.959,51.086 94.734,52.137 95.605,53.097C95.628,53.122 95.652,53.148 95.675,53.174C99.422,57.196 104.74,59.387 110.226,59.177C113.173,59.178 116.117,58.503 118.802,57.203C120.113,56.582 121.335,55.8 122.439,54.878C125.995,57.803 130.527,59.348 135.178,59.167C138.116,59.171 141.069,58.497 143.761,57.193C146.608,55.821 149.02,53.689 150.73,51.032C152.479,48.332 153.409,45.182 153.407,41.964C153.406,40.713 153.117,39.528 152.603,38.474C153.135,37.451 153.451,36.296 153.492,35.07C153.66,30.112 151.721,25.308 148.159,21.855C148.091,21.789 148.021,21.724 147.951,21.66C144.409,18.464 139.771,16.757 135.013,16.887C130.419,16.735 125.934,18.285 122.415,21.195C118.941,18.296 114.521,16.761 109.991,16.888C106.261,16.785 102.612,17.799 99.496,19.748C99.338,19.374 99.15,19.01 98.933,18.659C97.477,16.305 94.907,14.873 92.14,14.873L82.92,14.873C80.271,14.873 77.835,16.182 76.363,18.3Z" style="fill:white;fill-rule:nonzero;"/>
        </g>
        <g id="logo">
            <g transform="matrix(1.17784,0,0,1.17784,-3.02358,-11.4989)">
                <path d="M37.54,51.18C34.203,51.301 30.955,50.067 28.54,47.76C26.14,45.349 24.855,42.039 25,38.64L25,38C24.96,35.641 25.463,33.304 26.47,31.17C27.374,29.248 28.825,27.634 30.64,26.53C32.498,25.426 34.629,24.861 36.79,24.9C39.872,24.718 42.882,25.913 45,28.16C47,30.353 48,33.457 48,37.47L48,40.23L31.84,40.23C32,41.761 32.711,43.184 33.84,44.23C34.986,45.237 36.475,45.771 38,45.72C40.372,45.823 42.651,44.762 44.1,42.88L47.41,46.61C46.366,48.094 44.939,49.266 43.28,50C41.478,50.815 39.517,51.218 37.54,51.18ZM36.77,30.34C35.536,30.296 34.342,30.798 33.51,31.71C32.595,32.822 32.037,34.185 31.91,35.62L41.3,35.62L41.3,35.07C41.354,33.794 40.917,32.544 40.08,31.58C39.206,30.712 37.999,30.26 36.77,30.34Z" style="fill:rgb(24,25,26);fill-rule:nonzero;"/>
            </g>
            <g transform="matrix(1.17784,0,0,1.17784,-3.02358,-11.4989)">
                <path d="M60.91,42.44L65.61,25.35L72.61,25.35L64.13,50.71L57.69,50.71L49.17,25.35L56.17,25.35L60.91,42.44Z" style="fill:rgb(24,25,26);fill-rule:nonzero;"/>
            </g>
            <g transform="matrix(1.17784,0,0,1.17784,-3.02358,-11.4989)">
                <path d="M110,45.72C111.088,45.765 112.156,45.409 113,44.72C113.784,44.023 114.229,43.019 114.22,41.97L120.54,41.97C120.541,43.649 120.055,45.292 119.14,46.7C118.21,48.132 116.896,49.275 115.35,50C113.704,50.804 111.892,51.211 110.06,51.19C106.844,51.354 103.715,50.086 101.52,47.73C99.433,45.43 98.39,42.247 98.39,38.18L98.39,37.73C98.39,33.83 99.423,30.713 101.49,28.38C103.667,26.011 106.787,24.728 110,24.88C112.791,24.745 115.524,25.72 117.6,27.59C119.537,29.478 120.59,32.097 120.5,34.8L114.2,34.8C114.225,33.613 113.795,32.461 113,31.58C112.202,30.74 111.077,30.288 109.92,30.34C108.515,30.26 107.165,30.916 106.36,32.07C105.56,33.22 105.16,35.07 105.16,37.67L105.16,38.37C105.16,40.98 105.55,42.86 106.35,44C107.179,45.174 108.567,45.828 110,45.72Z" style="fill:rgb(24,25,26);fill-rule:nonzero;"/>
            </g>
            <g transform="matrix(1.17784,0,0,1.17784,-3.02358,-11.4989)">
                <path d="M134.88,45.72C135.968,45.764 137.036,45.408 137.88,44.72C138.661,44.021 139.103,43.018 139.09,41.97L145.42,41.97C145.421,43.649 144.935,45.292 144.02,46.7C143.106,48.124 141.814,49.266 140.29,50C138.642,50.799 136.831,51.203 135,51.18C131.784,51.344 128.655,50.076 126.46,47.72C124.373,45.42 123.33,42.237 123.33,38.17L123.33,37.72C123.33,33.82 124.363,30.703 126.43,28.37C128.62,25.986 131.767,24.704 135,24.88C137.791,24.743 140.525,25.718 142.6,27.59C144.543,29.474 145.601,32.095 145.51,34.8L139.18,34.8C139.203,33.612 138.77,32.459 137.97,31.58C137.135,30.784 136.025,30.34 134.872,30.34C133.489,30.34 132.18,30.979 131.33,32.07C130.53,33.22 130.12,35.07 130.12,37.67L130.12,38.37C130.12,40.977 130.52,42.853 131.32,44C132.131,45.146 133.478,45.796 134.88,45.72Z" style="fill:rgb(24,25,26);fill-rule:nonzero;"/>
            </g>
            <g transform="matrix(1.17784,0,0,1.17784,-3.02358,-11.4989)">
                <path d="M82.92,22.86L92.14,22.86L86,35.16L92.15,35.16L80.62,56.67L82.92,41.31L75.24,41.31L82.92,22.86Z" style="fill:rgb(15,221,66);fill-rule:nonzero;"/>
            </g>
        </g>
    </g>
    <g transform="matrix(7.22952,0,0,7.22952,-116.331,-87.4844)">
        <g id="Cut-line" serif:id="Cut line">
            <path d="M77.189,22.276C77.156,22.226 77.121,22.177 77.086,22.127C76.049,20.688 74.384,19.835 72.61,19.835L65.61,19.835C63.644,19.835 61.87,20.875 60.89,22.497C59.91,20.875 58.136,19.835 56.17,19.835L49.17,19.835C47.698,19.835 46.301,20.422 45.276,21.445C42.685,19.976 39.706,19.245 36.674,19.384C33.574,19.363 30.506,20.194 27.823,21.789C27.807,21.798 27.791,21.808 27.775,21.817C25.035,23.483 22.846,25.919 21.481,28.82C20.121,31.704 19.438,34.861 19.485,38.048C19.485,38.041 19.485,38.534 19.485,38.534C19.31,43.421 21.174,48.178 24.632,51.651C24.664,51.684 24.697,51.716 24.73,51.748C28.184,55.047 32.816,56.828 37.586,56.696C40.324,56.727 43.037,56.159 45.534,55.033C47.971,53.95 50.085,52.258 51.675,50.123L52.462,52.466C53.217,54.712 55.321,56.225 57.69,56.225L64.13,56.225C66.502,56.225 68.608,54.708 69.36,52.459L71.68,45.522C72.663,46.353 73.92,46.825 75.24,46.825L76.518,46.825C76.518,46.825 75.166,55.853 75.166,55.853C74.768,58.506 76.337,61.06 78.883,61.905C81.429,62.749 84.214,61.64 85.481,59.276L93.585,44.157C94.33,47.045 95.644,49.461 97.435,51.436C97.452,51.454 97.468,51.471 97.484,51.489C100.753,54.998 105.398,56.904 110.185,56.705C112.782,56.712 115.376,56.119 117.739,54.971C119.521,54.129 121.111,52.936 122.417,51.471L122.424,51.479C125.689,54.985 130.328,56.89 135.109,56.696C137.722,56.704 140.32,56.113 142.687,54.967C145.124,53.793 147.19,51.966 148.653,49.691C150.144,47.391 150.937,44.707 150.935,41.966C150.934,40.624 150.454,39.393 149.655,38.437C150.469,37.512 150.977,36.31 151.022,34.986C151.166,30.726 149.5,26.597 146.438,23.63C146.391,23.584 146.343,23.539 146.295,23.496C143.209,20.71 139.162,19.23 135.014,19.36C130.246,19.182 125.618,21.107 122.377,24.63C122.084,24.287 121.775,23.957 121.449,23.641C121.398,23.59 121.345,23.541 121.292,23.493C118.197,20.704 114.14,19.225 109.983,19.361C105.254,19.209 100.654,21.138 97.429,24.648C97.406,24.673 97.384,24.698 97.361,24.723L97.309,24.783C97.899,23.198 97.732,21.416 96.83,19.959C95.825,18.334 94.051,17.345 92.14,17.345L82.92,17.345C80.693,17.345 78.684,18.684 77.828,20.741L77.189,22.276Z" style="fill:none;fill-rule:nonzero;stroke:black;stroke-width:0.04px;"/>
        </g>
    </g>
</svg>
